!!!OTL: DIE BESTE ZEIT IM JAHR IST MEIN
!!!ARE: Europa, Mitteleuropa, Deutschland
!!!SCT: F0257
!!!YEM: Copyright 1995, estate of Helmut Schaffrath.
**kern
*ICvox
*Ivox
*M2/4
*k[b-]
*F:
{8cc
=1
8dd
8dd
8b-
8b-
=2
8.cc
16b-
8a}
{8cc
=3
8b-
8g
8a
8f
=4
8.g
16a
4g}
=5
{[2cc
=6
8cc]
16cc
16dd
8ee
8ee
=7
8dd
8bn
4cc}
=8
{8r
8dd
8cc
8b-
=9
8a
8dd
8.cc
16b-
=10
8a}
{8a
8b-
8cc
=11
8dd
8dd
[4dd
=12
4dd]
4cc
=13
[2cc
=14
8cc]
4r}
==
!!!AGN: Jugend - Lied, Belehrung, religioes
!!!ONB: ESAC (Essen Associative Code) Database: FINK
!!!AMT: simple duple
!!!AIN: vox
!!!EED: Helmut Schaffrath
!!!EEV: 1.0
*-
